X: 13184
T: First Sight
R: reel
M: 4/4
K: Amajor
ef|affe faaa-|afef c3e|eccB c2Bc|AFFA EFAc|
affe faaa-|afef c3e|eccB BcBc|AFFA E2BA||
FB (3BBB dBBd|AFFA E2BA|FB (3BBB dABd|edef a2fe|
FB (3BBB dBBd|AFFA E2BA|FB (3BBB dABd|edef a2ef||

